X: 30479
T: Old Woman Of The Milldust
R: jig
M: 6/8
K: Amixolydian
AAA a2e|g2f edB|AAA a2e|g2e dBG|
AAA a2 e|g2d efg|agf g2e|d2e dBG:|
Bcd e2A|a2A e2A|Bcd e2A|g2e dBG|
Bcd e2A|g2d efg|agf g2e|d2e dBG:|
c2A AAA|cee a2e|c2A AAA|B2e dBG|
c2A AAA|cee g3|agf g2e|d2e dBG:|
a2A e2A|a2A ecA|a2A e2A|g2e dBG|
a2A e2A|a2A efg|agf g2e|d2e dBG:|
AAA AAA|c2A edB|AAA AAA|g2e dBG|
AAA AAA|cee efg|agf g2e|d2e dBG:|
a2A AAA|a2A ecA|a2A AAA|g2e dBG|
a2A AAA|AAA g3|agf g2e|d2e dBG:|

